public/images/logos/new-york-rangers.svg

<svg viewBox="0 0 24 16" xmlns="http://www.w3.org/2000/svg"><path d="m15.959.335-.576.56-.574-.56h-5.617l-.575.56-.576-.56h-4.014l1.2 2.13v10.348c0 .209 0 1.834 1.964 1.834h3.105c1.115 0 1.658 1.019 1.658 1.019h.09s.543-1.019 1.658-1.019h3.107c1.963 0 1.963-1.625 1.963-1.834v-10.348l1.199-2.13z" fill="#0038a8"/><path d="m18.674 2.438 1.129-2.004h-3.803l-.617.6-.615-.6h-5.536l-.615.6-.616-.6h-3.803l1.13 2.004v10.374c0 .521.182 1.733 1.863 1.733h3.105c.997 0 1.551.767 1.703 1.009.152-.242.706-1.009 1.703-1.009h3.107c1.682 0 1.863-1.212 1.863-1.733v-10.374z" fill="#fff"/><path d="m18.793 14.283c-.211 0-.383.172-.383.384 0 .211.172.383.383.383.213 0 .385-.172.385-.383 0-.212-.172-.384-.385-.384zm0 .685c-.166 0-.301-.135-.301-.301 0-.167.135-.301.301-.301.168 0 .303.134.303.301 0 .166-.135.301-.303.301z" fill="#0038a8"/><path d="m18.951 14.578c0-.072-.059-.13-.129-.13h-.186v.438h.082v-.178h.059l.084.178h.09l-.086-.186c.051-.017.086-.066.086-.122zm-.129.048h-.104v-.096h.104c.025 0 .047.021.047.048s-.021.048-.047.048zm-2.636-13.733-.803.78-.801-.78h-5.163l-.802.78-.803-.78h-2.833l.804 1.427v10.493c0 .582.244 1.275 1.406 1.275h3.105c.789 0 1.352.443 1.703.797.352-.354.914-.797 1.703-.797h3.107c1.16 0 1.404-.693 1.404-1.275v-10.494l.805-1.427h-2.832z" fill="#0038a8"/><path d="m10.934 5.48 6.937 5.025v-5.025z" fill="#ce1126"/><path d="m6.13 4.773h11.741v.283h-11.741zm0 8.039c0 .825.566.932 1.062.932h3.105c.707 0 1.279.371 1.703.712.425-.341.996-.712 1.703-.712h1.125l-8.698-6.3zm0-5.952 9.503 6.884h.404l-9.907-7.176zm3.595-1.38 8.146 5.901v-.292l-7.742-5.609zm3.359 5.593.687.498.2-.276-.407-.294.325-.448.406.295.201-.277-.406-.294.324-.448.404.295.202-.276-.688-.498zm-3.441-5.12-.635-.46-1.249 1.724.281.204.559-.772.157.114-.264.984.281.204.267-.997c.177.072.386.019.502-.143l.195-.27c.137-.187.095-.451-.094-.588zm5.56 6.655.268-.998c.176.073.385.02.502-.143l.195-.269c.137-.188.094-.452-.094-.589l-.637-.46-1.248 1.723.281.204.559-.771.156.113-.264.986zm-3.578-5.218-1.247 1.723.28.203.75-1.034-.297 1.363.282.203 1.248-1.724-.282-.203-.75 1.034.298-1.362zm-2.662.699.281.203.354-.285.469.339-.16.427.281.203.776-2.065-.282-.203zm4.641.733-.234-.171c-.189-.137-.453-.095-.59.094l-.754 1.041c-.137.188-.094.452.095.589l.235.171c.061.043.128.068.197.077l-.006.062.15.108.668-.922-.549-.396-.17.235.266.192-.211.293c-.047.065-.139.08-.203.032l-.121-.087c-.064-.047-.079-.139-.031-.203l.678-.936c.047-.065.137-.079.203-.032l.119.087c.066.047.08.138.033.203l-.166.229.281.203.203-.28c.137-.188.096-.452-.093-.589zm3.517 2.547c-.258-.187-.617-.129-.803.129-.338.467.314 1.033.137 1.278-.084.114-.244.141-.359.057-.113-.082-.141-.243-.057-.358l.08-.111-.281-.204-.076.107c-.197.27-.137.647.135.843.27.196.646.136.842-.135.336-.462-.316-1.029-.135-1.278.072-.102.215-.125.316-.051.104.074.127.217.053.319l-.068.093.281.203.064-.088c.186-.257.129-.617-.129-.804zm-8.323-7.291h-.501v-.553h.501v-.34h-.501v-.552h.501v-.342h-.849v2.128h.849zm6.325-.611h.193l.363.952h.348l-.369-.964c.186-.045.324-.211.324-.41v-.332c0-.233-.189-.422-.422-.422h-.785v2.128h.348zm-8.536-.325.559 1.277h.347v-2.128h-.347v1.278l-.559-1.278h-.347v2.128h.347zm7.177 1.277h.291c.232 0 .422-.188.422-.421v-1.285c0-.233-.189-.422-.422-.422h-.291c-.232 0-.422.188-.422.422v1.285c0 .232.189.421.422.421zm2.994-.881.156-.25.498 1.131h.348l-.643-1.457.418-.671h-.347l-.43.69v-.69h-.348v2.128h.348zm-4.412.881h.347v-.881l.459-1.247h-.347l-.285.775-.286-.775h-.346l.458 1.247zm-2.455 0 .181-1.115.183 1.115h.415l.348-2.128h-.348l-.208 1.273-.207-1.273h-.364l-.208 1.273-.208-1.273h-.347l.347 2.128z" fill="#fff"/><path d="m13.834 4.078h.148c.08 0 .146-.065.146-.146v-1.154c0-.081-.066-.146-.146-.146h-.148c-.08 0-.145.064-.145.146v1.154c0 .081.065.146.145.146zm-3.661 3.985.279-.741-.618.496zm-.787-1.875-.297-.215-.29.399.297.216c.065.047.156.032.204-.033l.118-.163c.047-.066.032-.157-.032-.204zm6.249-3.209v-.201c0-.081-.066-.146-.146-.146h-.365v.493h.365c.079.001.146-.064.146-.146zm.095 8.233.117-.164c.047-.064.033-.155-.031-.203l-.296-.215-.291.399.297.215c.066.047.156.033.204-.032z" fill="#0038a8"/></svg>

<svg xmlns="http://www.w3.org/2000/svg" viewBox="0 0 24 16"><path fill="#0038A8" d="M15.959,0.335l-0.576,0.56l-0.574-0.56H9.192l-0.575,0.56l-0.576-0.56H4.027l1.2,2.13v10.348 c0,0.209,0,1.834,1.964,1.834h3.105c1.115,0,1.658,1.019,1.658,1.019h0.09c0,0,0.543-1.019,1.658-1.019h3.107 c1.963,0,1.963-1.625,1.963-1.834V2.465l1.199-2.13H15.959z"/><path fill="#FFF" d="M18.674,2.438l1.129-2.004H16l-0.617,0.6l-0.615-0.6H9.232l-0.615,0.6l-0.616-0.6H4.198l1.13,2.004v10.374 c0,0.521,0.182,1.733,1.863,1.733h3.105c0.997,0,1.551,0.767,1.703,1.009c0.152-0.242,0.706-1.009,1.703-1.009h3.107 c1.682,0,1.863-1.212,1.863-1.733V2.438z"/><path fill="#0038A8" d="M18.793,14.283c-0.211,0-0.383,0.172-0.383,0.384c0,0.211,0.172,0.383,0.383,0.383 c0.213,0,0.385-0.172,0.385-0.383C19.178,14.455,19.006,14.283,18.793,14.283z M18.793,14.968c-0.166,0-0.301-0.135-0.301-0.301 c0-0.167,0.135-0.301,0.301-0.301c0.168,0,0.303,0.134,0.303,0.301C19.096,14.833,18.961,14.968,18.793,14.968z"/><path fill="#0038A8" d="M18.951 14.578c0-.072-.059-.13-.129-.13h-.186v.438h.082v-.178h.059l.084.178h.09L18.865 14.7C18.916 14.683 18.951 14.634 18.951 14.578zM18.822 14.626h-.104V14.53h.104c.025 0 .047.021.047.048S18.848 14.626 18.822 14.626zM16.186.893l-.803.78-.801-.78H9.419l-.802.78-.803-.78H4.981l.804 1.427v10.493c0 .582.244 1.275 1.406 1.275h3.105c.789 0 1.352.443 1.703.797.352-.354.914-.797 1.703-.797h3.107c1.16 0 1.404-.693 1.404-1.275V2.319l.805-1.427H16.186z"/><path fill="#CE1126" d="M10.934 5.48L17.871 10.505 17.871 5.48z"/><g fill="#FFF"><path d="M6.13 4.773H17.871V5.056H6.13zM6.13 12.812c0 .825.566.932 1.062.932h3.105c.707 0 1.279.371 1.703.712.425-.341.996-.712 1.703-.712h1.125l-8.698-6.3V12.812zM6.13 6.86L15.633 13.744 16.037 13.744 6.13 6.568zM9.725 5.48L17.871 11.381 17.871 11.089 10.129 5.48zM13.084 11.073L13.771 11.571 13.971 11.295 13.564 11.001 13.889 10.553 14.295 10.848 14.496 10.571 14.09 10.277 14.414 9.829 14.818 10.124 15.02 9.848 14.332 9.35zM9.643 5.953l-.635-.46L7.759 7.217 8.04 7.421l.559-.772.157.114L8.492 7.747l.281.204L9.04 6.954c.177.072.386.019.502-.143l.195-.27C9.874 6.354 9.832 6.09 9.643 5.953zM15.203 12.608l.268-.998c.176.073.385.02.502-.143l.195-.269c.137-.188.094-.452-.094-.589l-.637-.46-1.248 1.723.281.204.559-.771.156.113-.264.986L15.203 12.608zM11.625 7.39L10.378 9.113 10.658 9.316 11.408 8.282 11.111 9.645 11.393 9.848 12.641 8.124 12.359 7.921 11.609 8.955 11.907 7.593zM8.963 8.089l.281.203.354-.285.469.339-.16.427.281.203.776-2.065-.282-.203L8.963 8.089zM13.604 8.822l-.234-.171c-.189-.137-.453-.095-.59.094l-.754 1.041c-.137.188-.094.452.095.589l.235.171c.061.043.128.068.197.077l-.006.062.15.108.668-.922-.549-.396-.17.235.266.192-.211.293c-.047.065-.139.08-.203.032l-.121-.087c-.064-.047-.079-.139-.031-.203l.678-.936c.047-.065.137-.079.203-.032l.119.087c.066.047.08.138.033.203l-.166.229.281.203.203-.28C13.834 9.223 13.793 8.959 13.604 8.822zM17.121 11.369c-.258-.187-.617-.129-.803.129-.338.467.314 1.033.137 1.278-.084.114-.244.141-.359.057-.113-.082-.141-.243-.057-.358l.08-.111-.281-.204-.076.107c-.197.27-.137.647.135.843.27.196.646.136.842-.135.336-.462-.316-1.029-.135-1.278.072-.102.215-.125.316-.051.104.074.127.217.053.319l-.068.093.281.203.064-.088C17.436 11.916 17.379 11.556 17.121 11.369zM8.798 4.078L8.297 4.078 8.297 3.525 8.798 3.525 8.798 3.185 8.297 3.185 8.297 2.633 8.798 2.633 8.798 2.291 7.949 2.291 7.949 4.419 8.798 4.419zM15.123 3.467h.193l.363.952h.348l-.369-.964c.186-.045.324-.211.324-.41V2.713c0-.233-.189-.422-.422-.422h-.785v2.128h.348V3.467zM6.587 3.142L7.146 4.419 7.493 4.419 7.493 2.291 7.146 2.291 7.146 3.569 6.587 2.291 6.24 2.291 6.24 4.419 6.587 4.419zM13.764 4.419h.291c.232 0 .422-.188.422-.421V2.713c0-.233-.189-.422-.422-.422h-.291c-.232 0-.422.188-.422.422v1.285C13.342 4.23 13.531 4.419 13.764 4.419zM16.758 3.538L16.914 3.288 17.412 4.419 17.76 4.419 17.117 2.962 17.535 2.291 17.188 2.291 16.758 2.981 16.758 2.291 16.41 2.291 16.41 4.419 16.758 4.419zM12.346 4.419L12.693 4.419 12.693 3.538 13.152 2.291 12.805 2.291 12.52 3.066 12.234 2.291 11.888 2.291 12.346 3.538zM9.891 4.419L10.072 3.304 10.255 4.419 10.67 4.419 11.018 2.291 10.67 2.291 10.462 3.564 10.255 2.291 9.891 2.291 9.683 3.564 9.475 2.291 9.128 2.291 9.475 4.419z"/></g><g fill="#0038A8"><path d="M13.834 4.078h.148c.08 0 .146-.065.146-.146V2.778c0-.081-.066-.146-.146-.146h-.148c-.08 0-.145.064-.145.146v1.154C13.689 4.013 13.754 4.078 13.834 4.078zM10.173 8.063L10.452 7.322 9.834 7.818zM9.386 6.188L9.089 5.973l-.29.399.297.216C9.161 6.635 9.252 6.62 9.3 6.555l.118-.163C9.465 6.326 9.45 6.235 9.386 6.188zM15.635 2.979V2.778c0-.081-.066-.146-.146-.146h-.365v.493h.365C15.568 3.126 15.635 3.061 15.635 2.979zM15.73 11.212l.117-.164c.047-.064.033-.155-.031-.203L15.52 10.63l-.291.399.297.215C15.592 11.291 15.682 11.277 15.73 11.212z"/></g></svg>
